assets/icons/line.svg

<svg id="Layer_1" enable-background="new 0 0 511.988 511.988" height="512" viewBox="0 0 511.988 511.988" width="512" xmlns="http://www.w3.org/2000/svg"><g><g><path d="m155.931 511.57c-46.853.004-88.404-34.729-104.115-77.628-16.002-43.694-1.489-89.444 34.636-118.075l182.748-144.912c38.712-30.68 42.438-82.661 12.281-120.821-30.081-38.066-81.752-46.993-120.549-16.247-35.806 28.436-75.432 70.781-124.659 43.362-25.429-14.165-39.135-40.943-35.77-69.885 1.086-9.321 16.034-8.015 14.9 1.732-2.652 22.8 8.142 43.893 28.17 55.048 41.665 23.208 78.005-18.157 108.037-42.008 45.184-35.812 106.394-25.785 141.628 18.681 35.426 44.708 30.38 106.149-14.719 141.892l-182.748 144.912c-40.354 31.981-45.958 85.931-15.97 127.224 31.807 43.798 89.496 54.703 132.657 20.498l134.574-106.655c32.851-26.035 76.003-29.541 112.612-9.149 36.697 20.44 56.476 59.083 51.618 100.849-1.084 9.323-16.034 8.014-14.9-1.732 4.144-35.624-12.723-68.582-44.017-86.013-31.208-17.382-67.991-14.395-95.997 7.801l-134.574 106.655c-20.451 16.209-43.019 24.47-65.843 24.471z"/></g></g></svg>

<?xml version="1.0" encoding="UTF-8" standalone="no"?>
<svg
   id="Layer_1"
   enable-background="new 0 0 511.988 511.988"
   height="512"
   viewBox="0 0 511.988 511.988"
   width="512"
   version="1.1"
   sodipodi:docname="line.svg"
   inkscape:version="1.4 (e7c3feb100, 2024-10-09)"
   xmlns:inkscape="http://www.inkscape.org/namespaces/inkscape"
   xmlns:sodipodi="http://sodipodi.sourceforge.net/DTD/sodipodi-0.dtd"
   xmlns="http://www.w3.org/2000/svg"
   xmlns:svg="http://www.w3.org/2000/svg">
  <defs
     id="defs2" />
  <sodipodi:namedview
     id="namedview2"
     pagecolor="#ffffff"
     bordercolor="#000000"
     borderopacity="0.25"
     inkscape:showpageshadow="2"
     inkscape:pageopacity="0.0"
     inkscape:pagecheckerboard="0"
     inkscape:deskcolor="#d1d1d1"
     inkscape:zoom="1.6855469"
     inkscape:cx="255.70336"
     inkscape:cy="256"
     inkscape:window-width="1920"
     inkscape:window-height="1149"
     inkscape:window-x="0"
     inkscape:window-y="27"
     inkscape:window-maximized="1"
     inkscape:current-layer="Layer_1" />
  <g
     id="g1"
     style="stroke-width:5.66915847;stroke-dasharray:none;stroke:#000000;stroke-opacity:1"
     inkscape:export-filename="line.png"
     inkscape:export-xdpi="96"
     inkscape:export-ydpi="96">
    <path
       d="M 155.931,511.57 C 109.078,511.574 67.527,476.841 51.816,433.942 35.814,390.248 50.327,344.498 86.452,315.867 L 269.2,170.955 C 307.912,140.275 311.638,88.294 281.481,50.134 251.4,12.068 199.729,3.141 160.932,33.887 125.126,62.323 85.5,104.668 36.273,77.249 10.844,63.084 -2.862,36.306 0.503,7.364 c 1.086,-9.321 16.034,-8.015 14.9,1.732 -2.652,22.8 8.142,43.893 28.17,55.048 41.665,23.208 78.005,-18.157 108.037,-42.008 45.184,-35.812 106.394,-25.785 141.628,18.681 35.426,44.708 30.38,106.149 -14.719,141.892 L 95.771,327.621 c -40.354,31.981 -45.958,85.931 -15.97,127.224 31.807,43.798 89.496,54.703 132.657,20.498 L 347.032,368.688 c 32.851,-26.035 76.003,-29.541 112.612,-9.149 36.697,20.44 56.476,59.083 51.618,100.849 -1.084,9.323 -16.034,8.014 -14.9,-1.732 4.144,-35.624 -12.723,-68.582 -44.017,-86.013 -31.208,-17.382 -67.991,-14.395 -95.997,7.801 L 221.774,487.099 c -20.451,16.209 -43.019,24.47 -65.843,24.471 z"
       id="path1"
       style="stroke-width:5.66915847;stroke-dasharray:none;stroke:#000000;stroke-opacity:1" />
  </g>
</svg>
